X:1
T:Title
%%score { 1 | ( 2 3 ) }
L:1/8
Q:1/4=100
M:4/4
K:Bb
V:1 treble nm="Grand Piano"
V:2 bass 
V:3 bass 
V:1
 F2 G>A B2 D>C | B,2 G>G F4 | A2 A>B c2 B>A | [DB]2 [EG]>[EG] [DF]4 | F2 GA B>A B2 | c2 Bc d>d d2 | %6
w: J.~H.~Rosecrans * * * * *||||||
 [GB]2 [FA][EG] [EG]>[DF] [DF][DB] | B2 A>A [DB]4 | [DF]2 [DF]>[DF] [DF]2 [DF]>[DF] | %9
w: |||
 G2 G>G [DF]4 | A2 A>B c2 BA | [DFB]2 [C=EB]>[CEB] [CFA]4 | [Fd]2 [Fd]>[Ec] [DB]2 [DF][FB] | %13
w: ||||
 c2 c>d [DB]4 | [GB]2 [FA]>[EG] [DF]2 [DB]>[DB] | B2 A>A [DB]4 |] %16
w: |||
V:2
 F,2 G,>A, B,2 D,>C, | B,,2 G,>G, F,4 | [F,CF]2 [F,CF]>[F,DF] [F,EF]2 [F,DF]>[F,CE] | %3
 [B,,B,]2 [B,,B,]>[B,,B,] [B,,B,]4 | F,2 G,A, B,>A, B,2 | %5
 [F,A,F]2 [F,B,D][K:treble][F,A,F] [B,F]>[B,F] [B,F]2 | %6
 [E,B,]2 [E,B,][E,B,] [B,,B,]2 [B,,B,][B,,F,] | [F,D]2 [F,C]>[F,E] [B,,F,]4 | %8
 [B,,B,]2 [B,,B,]>[B,,B,] [B,,B,]2 [B,,B,]>[B,,B,] | [E,B,E]2 [E,B,E]>[E,B,E] [B,,B,]4 | %10
 [F,CF]2 [F,CF]>[F,DF] [F,EF]2 [F,DF][F,CF] | z4 F,4 | %12
 [B,,B,]2 [B,,B,]>[B,,F,] [B,,F,]2 [B,,B,][D,B,] | [F,A,F]2 [F,A,F]>[F,A,F] [B,,B,]4 | %14
 [E,B,]2 [E,B,]>[E,B,] [B,,B,]2 [B,,F,]>[B,,F,] | [F,D]2 [F,C]>[F,E] [B,,F,]4 |] %16
V:3
 x8 | x8 | x8 | x8 | x8 | x3[K:treble] x5 | x8 | x8 | x8 | x8 | x8 | B,,2 C,>C, z E,D,C, | x8 | %13
 x8 | x8 | x8 |] %16

